app/welcome/logo-dark.svg

<svg width="1080" height="174" viewBox="0 0 1080 174" fill="none" xmlns="http://www.w3.org/2000/svg">
<path d="M231.527 86.9999C231.527 94.9642 228.297 102.173 223.067 107.387C217.837 112.606 210.614 115.835 202.634 115.835C194.654 115.835 187.43 119.059 182.206 124.278C176.977 129.498 173.741 136.707 173.741 144.671C173.741 152.635 170.51 159.844 165.281 165.058C160.051 170.277 152.828 173.507 144.847 173.507C136.867 173.507 129.644 170.277 124.42 165.058C119.19 159.844 115.954 152.635 115.954 144.671C115.954 136.707 119.19 129.498 124.42 124.278C129.644 119.059 136.867 115.835 144.847 115.835C152.828 115.835 160.051 112.606 165.281 107.387C170.51 102.173 173.741 94.9642 173.741 86.9999C173.741 71.0711 160.808 58.1643 144.847 58.1643C136.867 58.1643 129.644 54.9347 124.42 49.7155C119.19 44.502 115.954 37.2931 115.954 29.3287C115.954 21.3643 119.19 14.1555 124.42 8.93622C129.644 3.71698 136.867 0.493164 144.847 0.493164C160.808 0.493164 173.741 13.4 173.741 29.3287C173.741 37.2931 176.977 44.502 182.206 49.7155C187.43 54.9347 194.654 58.1643 202.634 58.1643C218.594 58.1643 231.527 71.0711 231.527 86.9999Z" fill="#F44250"/>
<path d="M115.954 86.9996C115.954 71.0742 103.018 58.1641 87.061 58.1641C71.1037 58.1641 58.1677 71.0742 58.1677 86.9996C58.1677 102.925 71.1037 115.835 87.061 115.835C103.018 115.835 115.954 102.925 115.954 86.9996Z" fill="white"/>
<path d="M58.1676 144.671C58.1676 128.745 45.2316 115.835 29.2743 115.835C13.317 115.835 0.381104 128.745 0.381104 144.671C0.381104 160.596 13.317 173.506 29.2743 173.506C45.2316 173.506 58.1676 160.596 58.1676 144.671Z" fill="white"/>
<path d="M289.314 144.671C289.314 128.745 276.378 115.835 260.42 115.835C244.463 115.835 231.527 128.745 231.527 144.671C231.527 160.596 244.463 173.506 260.42 173.506C276.378 173.506 289.314 160.596 289.314 144.671Z" fill="white"/>
<g clip-path="url(#clip0_202_2131)">
<path d="M562.482 173.247C524.388 173.247 498.363 147.49 498.363 110.468C498.363 73.4455 524.388 47.6885 562.482 47.6885C600.576 47.6885 626.869 73.7135 626.869 110.468C626.869 147.222 600.576 173.247 562.482 173.247ZM562.482 144.007C579.385 144.007 587.703 130.319 587.703 110.468C587.703 90.6168 579.385 76.9289 562.482 76.9289C545.579 76.9289 537.529 90.6168 537.529 110.468C537.529 130.319 545.311 144.007 562.482 144.007Z" fill="white"/>
<path d="M833.64 141.116C824.217 141.116 819.237 136.684 819.237 126.156V74.8983H851.928V47.7792H819.237V1.15527H791.75L786.1 26.1978C783.343 36.4805 780.82 42.822 773.897 46.0821C773.105 46.4506 771.129 46.9976 769.409 47.3884C768.014 47.701 766.596 47.8573 765.167 47.8573H752.338V47.9243H734.832C723.578 47.9243 714.445 57.0459 714.445 68.3111V111.552C714.445 130.599 707.199 142.668 692.719 142.668C678.238 142.668 672.868 133.279 672.868 116.375V47.9243H634.249V125.765C634.249 151.254 644.442 173.248 676.63 173.248C691.915 173.248 703.895 167.231 711.096 157.182C712.145 155.72 714.445 156.49 714.445 158.276V170.022H753.332V83.8412C753.332 78.8953 757.34 74.8871 762.286 74.8871H779.882V136.952C779.882 164.663 797.89 173.248 817.842 173.248C833.908 173.248 844.436 169.374 853.58 162.441V136.126C846.1 139.453 839.725 141.116 833.629 141.116H833.64Z" fill="white"/>
<path d="M981.561 130.865C975.387 157.962 954.197 173.258 923.07 173.258C885.243 173.258 858.415 150.18 858.415 112.354C858.415 74.5281 885.779 47.6992 922.266 47.6992C961.699 47.6992 982.365 74.796 982.365 107.263V113.884H896.509C894.555 135.711 909.382 144.017 924.409 144.017C937.829 144.017 946.136 138.915 950.434 127.918L981.561 130.865ZM945.075 94.9372C944.271 83.1361 936.757 75.8567 921.998 75.8567C906.434 75.8567 899.188 82.321 897.045 94.9372H945.064H945.075Z" fill="white"/>
<path d="M1076.24 85.7486C1070.06 82.2652 1064.17 80.9142 1055.85 80.9142C1039.75 80.9142 1029.02 90.0358 1029.02 110.691V170.02H990.393V47.9225H1029.02V64.3235C1029.02 65.4623 1030.54 65.8195 1031.05 64.8035C1036.68 53.5718 1047.91 44.707 1062.03 44.707C1069.27 44.707 1075.45 46.8507 1078.66 49.5414L1076.25 85.7597L1076.24 85.7486Z" fill="white"/>
<path d="M547.32 31.5345V23.9983H522.457V31.5345H515.378V2.23828H542.14C553.562 2.23828 554.365 2.95282 554.365 13.1239C554.365 17.4111 553.472 18.5611 551.329 19.6553L549.408 20.6378L551.317 21.6426C553.595 22.8372 554.365 23.2391 554.365 30.0273V31.5345H547.332H547.32ZM522.457 18.3601H547.32V7.88763H522.457V18.349V18.3601Z" fill="white"/>
<path d="M578.493 2.23828H610.826V7.90996H580.067V14.5083H610.011V19.2868H580.067V25.8963H610.837V31.501L578.504 31.5345C575.344 31.5345 572.787 28.9778 572.787 25.8293V7.95462C572.787 4.80617 575.344 2.24945 578.493 2.24945V2.23828Z" fill="white"/>
<path d="M655.562 31.5345L653.151 26.3429H633.746L631.335 31.5345H624.58L637.006 4.75034C637.71 3.22078 639.262 2.23828 640.936 2.23828H645.927C647.613 2.23828 649.154 3.22078 649.857 4.75034L662.283 31.5345H655.529H655.562ZM643.46 8.06627C642.712 8.06627 642.053 8.49053 641.729 9.17158L635.968 21.5756H650.94L645.19 9.17158C644.878 8.49053 644.208 8.06627 643.46 8.06627Z" fill="white"/>
<path d="M694.862 32.4153C676.05 32.4153 675.313 32.4153 675.313 16.8852C675.313 1.35505 676.05 1.36621 694.862 1.36621C711.721 1.36621 713.764 2.06959 714.244 10.5325H707.333V7.01556H682.168V26.766H707.333V23.2714H714.244C713.775 31.7119 711.721 32.4153 694.862 32.4153Z" fill="white"/>
<path d="M745.282 31.5345V7.02795H729.16V2.23828H768.147V7.02795H752.025V31.5345H745.282Z" fill="white"/>
<path d="M454.419 169.819C450.935 165.264 448.792 154.814 447.452 137.397C446.112 118.104 437.806 113.817 422.532 113.817H392.254V169.83H347.494V0.986328H432.715C476.391 0.986328 498.106 21.6187 498.106 54.5882C498.106 79.2399 482.833 95.3171 462.201 98.0078C479.618 101.491 489.8 111.405 491.675 130.966C494.087 156.154 494.891 163.656 500.518 169.819H454.419ZM424.676 78.704C443.969 78.704 453.615 73.8808 453.615 58.3395C453.615 44.6739 443.969 37.4392 424.676 37.4392H392.254V78.7152H424.676V78.704Z" fill="white"/>
</g>
<defs>
<clipPath id="clip0_202_2131">
<rect width="731.156" height="172.261" fill="white" transform="translate(347.494 0.986328)"/>
</clipPath>
</defs>
</svg>

<svg xmlns="http://www.w3.org/2000/svg" width="1080" height="174" fill="none"><path fill="#F44250" d="M231.527 87c0 7.964-3.23 15.173-8.46 20.387a28.84 28.84 0 0 1-20.433 8.448 28.8 28.8 0 0 0-20.428 8.443c-5.229 5.22-8.465 12.429-8.465 20.393a28.7 28.7 0 0 1-8.46 20.387 28.84 28.84 0 0 1-20.434 8.449c-7.98 0-15.203-3.23-20.427-8.449-5.23-5.214-8.466-12.423-8.466-20.387s3.236-15.173 8.466-20.393a28.8 28.8 0 0 1 20.427-8.443 28.84 28.84 0 0 0 20.434-8.448A28.7 28.7 0 0 0 173.741 87c0-15.929-12.933-28.836-28.894-28.836-7.98 0-15.203-3.23-20.427-8.449-5.23-5.213-8.466-12.422-8.466-20.386 0-7.965 3.236-15.173 8.466-20.393A28.8 28.8 0 0 1 144.847.493c15.961 0 28.894 12.907 28.894 28.836 0 7.964 3.236 15.173 8.465 20.386a28.81 28.81 0 0 0 20.428 8.45c15.96 0 28.893 12.906 28.893 28.835"/><path fill="#fff" d="M115.954 87c0-15.926-12.936-28.836-28.893-28.836S58.168 71.074 58.168 87s12.936 28.835 28.893 28.835 28.893-12.91 28.893-28.835M58.168 144.671c0-15.926-12.936-28.836-28.894-28.836S.381 128.745.381 144.671s12.936 28.835 28.893 28.835 28.894-12.91 28.894-28.835M289.314 144.671c0-15.926-12.936-28.836-28.894-28.836s-28.893 12.91-28.893 28.836 12.936 28.835 28.893 28.835 28.894-12.91 28.894-28.835"/><g fill="#fff" clip-path="url(#a)"><path d="M562.482 173.247c-38.094 0-64.119-25.757-64.119-62.779s26.025-62.78 64.119-62.78 64.387 26.025 64.387 62.78c0 36.754-26.293 62.779-64.387 62.779m0-29.24c16.903 0 25.221-13.688 25.221-33.539s-8.318-33.54-25.221-33.54-24.953 13.689-24.953 33.54 7.782 33.539 24.953 33.539M833.64 141.116c-9.423 0-14.403-4.432-14.403-14.96V74.898h32.691V47.78h-32.691V1.155H791.75l-5.65 25.043c-2.757 10.282-5.28 16.624-12.203 19.884-.792.369-2.768.916-4.488 1.306a19.4 19.4 0 0 1-4.242.47h-12.829v.066h-17.506c-11.254 0-20.387 9.122-20.387 20.387v43.241c0 19.047-7.246 31.116-21.726 31.116-14.481 0-19.851-9.389-19.851-26.293v-68.45h-38.619v77.84c0 25.489 10.193 47.483 42.381 47.483 15.285 0 27.265-6.017 34.466-16.066 1.049-1.462 3.349-.692 3.349 1.094v11.746h38.887v-86.18a8.953 8.953 0 0 1 8.954-8.955h17.596v62.065c0 27.711 18.008 36.296 37.96 36.296 16.066 0 26.594-3.874 35.738-10.807v-26.315c-7.48 3.327-13.855 4.99-19.951 4.99zM981.561 130.865c-6.174 27.097-27.364 42.393-58.491 42.393-37.827 0-64.655-23.078-64.655-60.904s27.364-64.655 63.851-64.655c39.433 0 60.099 27.097 60.099 59.564v6.621h-85.856c-1.954 21.827 12.873 30.133 27.9 30.133 13.42 0 21.727-5.102 26.025-16.099zm-36.486-35.928c-.804-11.8-8.318-19.08-23.077-19.08-15.564 0-22.81 6.464-24.953 19.08h48.03M1076.24 85.749c-6.18-3.484-12.07-4.835-20.39-4.835-16.1 0-26.83 9.122-26.83 29.777v59.329h-38.627V47.922h38.627v16.402c0 1.138 1.52 1.496 2.03.48 5.63-11.232 16.86-20.097 30.98-20.097 7.24 0 13.42 2.144 16.63 4.834l-2.41 36.219zM547.32 31.535v-7.537h-24.863v7.537h-7.079V2.238h26.762c11.422 0 12.225.715 12.225 10.886 0 4.287-.893 5.437-3.036 6.531l-1.921.983 1.909 1.005c2.278 1.194 3.048 1.596 3.048 8.384v1.508h-7.045M522.457 18.36h24.863V7.888h-24.863V18.36M578.493 2.238h32.333V7.91h-30.759v6.598h29.944v4.779h-29.944v6.61h30.77V31.5l-32.333.034a5.71 5.71 0 0 1-5.717-5.706V7.955a5.71 5.71 0 0 1 5.706-5.706zM655.562 31.535l-2.411-5.192h-19.405l-2.411 5.192h-6.755L637.006 4.75a4.34 4.34 0 0 1 3.93-2.512h4.991a4.33 4.33 0 0 1 3.93 2.512l12.426 26.785h-6.754zM643.46 8.066c-.748 0-1.407.425-1.731 1.106l-5.761 12.404h14.972l-5.75-12.404a1.89 1.89 0 0 0-1.73-1.106"/><path d="M694.862 32.415c-18.812 0-19.549 0-19.549-15.53s.737-15.519 19.549-15.519c16.859 0 18.902.704 19.382 9.167h-6.911V7.016h-25.165v19.75h25.165v-3.495h6.911c-.469 8.44-2.523 9.144-19.382 9.144M745.282 31.535V7.028H729.16v-4.79h38.987v4.79h-16.122v24.507zM454.419 169.819c-3.484-4.555-5.627-15.005-6.967-32.422-1.34-19.293-9.646-23.58-24.92-23.58h-30.278v56.013h-44.76V.986h85.221c43.676 0 65.391 20.633 65.391 53.602 0 24.652-15.273 40.73-35.905 43.42 17.417 3.483 27.599 13.397 29.474 32.958 2.412 25.188 3.216 32.69 8.843 38.853zm-29.743-91.115c19.293 0 28.939-4.823 28.939-20.364 0-13.666-9.646-20.9-28.939-20.9h-32.422v41.275h32.422z"/></g><defs><clipPath id="a"><path fill="#fff" d="M347.494.986h731.156v172.261H347.494z"/></clipPath></defs></svg>
